X:1
T:Barr, CM
T:Barr, CM
T:John Samuel Coffman, 1883
T:Public Domain Courtesy of the Cyber Hymnal™
C:John Samuel Coffman, 1883
Z:Public Domain
Z:Courtesy of the Cyber Hymnal™
%%score 1 ( 2 3 )
L:1/8
Q:1/4=115
M:2/2
K:A
V:1 treble 
V:2 bass 
V:3 bass 
V:1
 [CE]4 [CE]2 [CE]2 | [EA]3 [GB] [Ac]2 [Ac]2 | [GB]4 [EB]4 | [EB]2 [CE]2 [Ec]3 [DB] | [CA]8 | %5
 [EB]4 [EB]2 [Ec]2 | [Gd]3 [Ac] [EB]3 [Ac] | [GB]4 [EB]4 | [Ec]3 [EA] [CE]4 | [EB]4 [EA]4 |] %10
V:2
 [E,A,]4 [E,A,]2 [E,A,]2 | [A,,C]3 [E,B,] A,2 A,2 | [E,G,]4 [E,B,]4 | %3
 [E,B,]2 [E,A,]2 [E,A,]3 [E,G,] | [A,,A,]8 | [E,G,]4 [E,G,]2 [E,A,]2 | %6
 [E,B,]3 [E,A,] [E,G,]3 [E,A,] | [E,G,]4 [E,B,]4 | [A,,C]3 [C,C] [E,E]4 | [E,G,D]4 [A,,A,C]4 |] %10
V:3
 x8 | x4 A,2 A,2 | x8 | x8 | x8 | x8 | x8 | x8 | x8 | x8 |] %10

